X: 35454
T: Rowan Tree, The
R: reel
M: 4/4
K: Dmajor
DE|"D"F3FF2E2|FA3A2d2|"G"B3AB2d2|"A"B3A A2 DE|
"D"F3FF2E2|FA3"G"B3A|"D"AF3 "A"E3D|"D"D6 A2||
"D"A2d2 d3c|"G"c4 B2d2|"D"A3B A2F2|"A"E6 DE|
"D"F3FF2E2|FA3 "G"B3A|"D"AF3"A"E3D|"D"D6||

